svgs/solid/wind-turbine.svg

<svg xmlns="http://www.w3.org/2000/svg" viewBox="0 0 512 512"><!-- Font Awesome Pro 6.0.0-alpha2 by @fontawesome - https://fontawesome.com License - https://fontawesome.com/license (Commercial License) --><path d="M398.688 425.793L310.339 243.479C304.411 229.881 304.147 214.481 309.608 200.69L382.887 21.626C386.104 13.514 382.137 4.331 374.025 1.114C367.301 -1.554 359.621 0.688 355.388 6.557L241.269 163.221C232.578 175.242 219.452 183.305 204.8 185.619L13.322 215.949C5.521 217.191 -0.164 224.002 0.004 231.898V232.129C0.183 240.059 6.217 246.627 14.103 247.479L203.829 268.008C218.583 269.602 232.091 277.008 241.369 288.586L371.678 442.082C376.641 448.271 385.422 449.824 392.207 445.711L392.397 445.591C399.151 441.494 401.838 433.037 398.688 425.793ZM256 248.008C242.744 248.008 232 237.264 232 224.01C232 210.754 242.744 200.01 256 200.01C269.254 200.01 279.998 210.754 279.998 224.01C279.998 237.264 269.254 248.008 256 248.008ZM350.097 479.999H301.778L296.778 403.343L220.999 314.006L210.22 479.999H161.901C147.924 480.015 135.152 487.917 128.902 500.419C126.924 504.371 128.523 509.175 132.475 511.154C133.57 511.701 134.777 511.992 136.002 511.999H375.998C380.416 511.997 383.996 508.413 383.992 503.996C383.992 502.753 383.703 501.529 383.147 500.419C376.891 487.9 364.093 479.994 350.097 479.999Z"/></svg>

<svg xmlns="http://www.w3.org/2000/svg" viewBox="0 0 514 512"><!-- Font Awesome Pro 5.15.1 by @fontawesome - https://fontawesome.com License - https://fontawesome.com/license (Commercial License) --><path d="M350.1 480h-48.32l-5-76.66L221 314l-10.78 166H161.9a36.94 36.94 0 0 0-33 20.42A8 8 0 0 0 136 512h240a8 8 0 0 0 7.15-11.58A36.93 36.93 0 0 0 350.1 480zm48.59-54.21l-88.35-182.32a55.73 55.73 0 0 1-.73-42.79l73.28-179.07a15.8 15.8 0 0 0-27.5-15.07L241.27 163.21a55.74 55.74 0 0 1-36.47 22.4L13.32 215.94A15.81 15.81 0 0 0 0 231.89v.23a15.8 15.8 0 0 0 14.1 15.35L203.83 268a55.78 55.78 0 0 1 37.54 20.58l130.31 153.5a15.81 15.81 0 0 0 20.53 3.63l.19-.12a15.79 15.79 0 0 0 6.29-19.8zM256 248a24 24 0 1 1 24-24 24 24 0 0 1-24 24z"/></svg>
